X: 1041
T: Always Able
R: jig
M: 6/8
K: Dminor
|:DFA GBd|A^ce d2e|fed fed|fed e2E|
DFA GBd|A^ce d2e|fed a2d|1 A2^c d2E:|2 A2^c d2e||
|:fef cBA|FAc f3|e^de A3|d^cd AGF|
GAB A,3|FGA A,3|F3 E3|1 DFA d2e:|2 DFA d2E||

